deployments/warp_routes/USDN/logo.svg

<svg width="48" height="48" viewBox="0 0 48 48" fill="none" xmlns="http://www.w3.org/2000/svg">
<path d="M4.68 9.04157C17.6496 10.4192 30.3504 7.02557 43.32 8.40317C44.2608 8.57117 45 9.47837 45 10.3856C45 19.2224 45 28.0928 45 36.9296C45 37.8704 44.2608 38.4416 43.32 38.3072C30.3504 36.9296 17.6496 40.3232 4.68 38.9456C3.7392 38.7776 3 37.8704 3 36.9632C3 28.1264 3 19.256 3 10.4192C3 9.47837 3.7392 8.87357 4.68 9.04157Z" fill="#14C784"/>
<path d="M32.2996 25.136C32.2996 25.9424 32.1316 26.7152 31.8292 27.488C31.5268 28.2608 31.09 28.9328 30.5188 29.5376C29.9476 30.1424 29.2756 30.6464 28.5364 31.016C27.7972 31.3856 27.0244 31.6208 26.218 31.688C26.218 31.688 26.218 31.688 26.1844 31.688C24.9076 31.8224 23.6308 31.5536 22.6228 30.8816C21.5812 30.2432 20.8084 29.2016 20.4388 27.992C20.2708 27.4544 20.17 26.8496 20.17 26.2448C20.17 24.464 20.17 23.5568 20.17 21.776C20.17 21.3392 20.338 20.936 20.6404 20.6C20.9428 20.264 21.346 20.0624 21.7828 20.0288C22.2196 19.9952 22.6228 20.096 22.9252 20.3648C23.2276 20.6336 23.3956 21.0032 23.3956 21.44C23.3956 23.2208 23.3956 24.128 23.3956 25.9088C23.3956 26.6816 23.698 27.3536 24.2356 27.8576C24.6388 28.2272 25.1428 28.4288 25.714 28.496C26.2852 28.5632 26.8564 28.4288 27.3604 28.16C27.898 27.8912 28.3348 27.488 28.6372 26.984C28.9396 26.48 29.1076 25.9088 29.1412 25.3376C29.1412 21.776 29.1412 19.9616 29.1412 16.4C29.1412 16.1984 29.1748 15.9968 29.2756 15.7952C29.3428 15.5936 29.4772 15.4256 29.6116 15.2576C29.746 15.0896 29.9476 14.9552 30.1156 14.8544C30.5188 14.6528 30.9556 14.6192 31.3252 14.7536C31.5268 14.8208 31.6948 14.9216 31.8292 15.056C31.9636 15.1904 32.098 15.3584 32.1652 15.56C32.2324 15.7616 32.2996 15.9632 32.2996 16.1648C32.2996 19.7936 32.2996 21.5744 32.2996 25.136ZM19.7332 19.8272C19.1956 20.432 18.8932 21.1712 18.8932 21.944C18.8932 25.5056 18.8932 27.32 18.8932 30.8816C18.8932 31.3184 18.7252 31.7216 18.4228 32.0576C17.818 32.696 16.7764 32.7968 16.1716 32.2256C15.8692 31.9568 15.7012 31.5536 15.7012 31.1168C15.7012 27.5552 15.7012 25.7408 15.7012 22.1792C15.7012 20.7344 16.2388 19.2896 17.1796 18.1136C18.1204 16.9376 19.4308 16.0976 20.8756 15.7616C21.178 15.6944 21.4804 15.6272 21.7492 15.5936C22.8916 15.4592 24.034 15.6608 25.0084 16.1984C25.4788 16.4336 25.882 16.736 26.2516 17.1056V17.1392C26.8564 17.744 27.2932 18.4832 27.562 19.3232C27.562 19.3568 27.562 19.3568 27.5956 19.3904C27.7636 19.928 27.8308 20.4656 27.8308 21.0368C27.8308 22.8176 27.8308 23.7248 27.8308 25.5056C27.8308 25.808 27.73 26.144 27.562 26.4128C27.394 26.6816 27.1252 26.9168 26.8564 27.0848C26.6548 27.1856 26.4532 27.2528 26.2516 27.2528C26.2516 27.2528 26.2516 27.2528 26.218 27.2528C26.1172 27.2528 26.0164 27.2528 25.9156 27.2528C25.8484 27.2528 25.8148 27.2192 25.7476 27.2192C25.714 27.2192 25.6804 27.2192 25.6468 27.1856C25.3444 27.0848 25.1092 26.9168 24.9412 26.6816C24.7732 26.4464 24.6724 26.144 24.6724 25.8416C24.6724 24.2288 24.6724 23.4224 24.6724 21.8096C24.6724 21.6416 24.6724 21.5408 24.6724 21.3728C24.6724 21.0032 24.6052 20.6336 24.4372 20.2976C24.3028 19.9616 24.0676 19.6592 23.7988 19.424C23.53 19.1888 23.2276 19.0208 22.858 18.8864C22.522 18.7856 22.1188 18.752 21.7492 18.7856C21.01 18.8528 20.2708 19.2224 19.7332 19.8272Z" fill="white"/>
<path d="M11.736 9.37753C9.384 9.37753 7.032 9.31033 4.68 9.04153C3.7392 8.87353 3 9.47833 3 10.4191C3 12.9055 3 15.3919 3 17.8447C7.92417 18.7562 11.7961 15.0321 11.736 9.37753Z" fill="#00945C"/>
<path d="M43.3199 8.40314C40.9679 8.16794 38.6159 8.06714 36.2975 8.06714C36.2639 8.23514 36.2639 8.43674 36.2639 8.60474C36.2488 13.6076 39.9029 17.4559 44.9999 17.3407C44.9999 15.0223 44.9999 12.6703 44.9999 10.3519C44.9999 9.47834 44.2607 8.57114 43.3199 8.40314Z" fill="#00945C"/>
<path d="M36.2639 37.971C38.6159 37.971 40.9679 38.0382 43.3199 38.307C44.2607 38.4414 44.9999 37.8702 44.9999 36.9294C44.9999 34.3758 44.9999 31.8222 44.9999 29.235C40.1615 29.235 36.9359 31.1838 36.2639 37.971Z" fill="#00945C"/>
<path d="M4.68 38.9456C7.032 39.1808 9.384 39.2816 11.7024 39.2816C11.7024 39.08 11.736 38.8448 11.736 38.6432C11.5322 34.3091 7.78954 30.4137 3 29.9072C3 32.2592 3 34.6112 3 36.9632C3 37.8704 3.7392 38.7776 4.68 38.9456Z" fill="#00945C"/>
</svg>

<svg xmlns="http://www.w3.org/2000/svg" width="48" height="48" fill="none" viewBox="0 0 48 48"><path fill="#14C784" d="M4.68 9.042c12.97 1.377 25.67-2.016 38.64-.639.94.168 1.68 1.075 1.68 1.983V36.93c0 .94-.74 1.512-1.68 1.377-12.97-1.377-25.67 2.016-38.64.639C3.74 38.778 3 37.87 3 36.963V10.42c0-.94.74-1.545 1.68-1.377"/><path fill="#fff" d="M32.3 25.136c0 .806-.168 1.58-.47 2.352a6.3 6.3 0 0 1-1.311 2.05 7.1 7.1 0 0 1-1.983 1.478 6.3 6.3 0 0 1-2.318.672h-.034c-1.276.134-2.553-.134-3.561-.806-1.042-.639-1.815-1.68-2.184-2.89a6 6 0 0 1-.269-1.747v-4.469c0-.437.168-.84.47-1.176a1.7 1.7 0 0 1 1.143-.571c.437-.034.84.067 1.142.336.303.269.47.638.47 1.075v4.469c0 .773.303 1.445.84 1.949.404.37.908.57 1.479.638a2.8 2.8 0 0 0 1.646-.336 3.1 3.1 0 0 0 1.277-1.176 3.6 3.6 0 0 0 .504-1.646V16.4c0-.202.034-.403.135-.605.067-.201.201-.37.336-.537.134-.168.336-.303.504-.404.403-.201.84-.235 1.21-.1q.301.1.503.302c.135.134.269.302.336.504s.135.403.135.605zm-12.567-5.309c-.537.605-.84 1.344-.84 2.117v8.938c0 .436-.168.84-.47 1.176-.605.638-1.647.739-2.251.168-.303-.27-.47-.672-.47-1.11V22.18c0-1.445.537-2.89 1.478-4.065a6.7 6.7 0 0 1 3.696-2.352 9 9 0 0 1 .873-.168c1.143-.135 2.285.067 3.26.604.47.236.873.538 1.243.908v.033a5.36 5.36 0 0 1 1.31 2.184c0 .034 0 .034.034.067.168.538.235 1.076.235 1.647v4.469c0 .302-.101.638-.269.907s-.437.504-.706.672a1.4 1.4 0 0 1-.604.168h-.336c-.068 0-.101-.034-.168-.034-.034 0-.068 0-.101-.033a1.37 1.37 0 0 1-.706-.504 1.47 1.47 0 0 1-.269-.84v-4.469c0-.37-.067-.74-.235-1.075a2.36 2.36 0 0 0-.638-.874 2.9 2.9 0 0 0-.941-.538c-.336-.1-.74-.134-1.109-.1a3.12 3.12 0 0 0-2.016 1.041"/><path fill="#00945C" d="M11.736 9.378c-2.352 0-4.704-.068-7.056-.336C3.74 8.874 3 9.478 3 10.419v7.426c4.924.911 8.796-2.813 8.736-8.467m31.584-.975a71 71 0 0 0-7.023-.336c-.033.168-.033.37-.033.538-.015 5.003 3.639 8.85 8.736 8.736v-6.99c0-.873-.74-1.78-1.68-1.948m-7.056 29.568c2.352 0 4.704.067 7.056.336.94.134 1.68-.437 1.68-1.378v-7.694c-4.839 0-8.064 1.949-8.736 8.736m-31.584.975c2.352.235 4.704.336 7.022.336 0-.202.034-.437.034-.639-.204-4.334-3.946-8.23-8.736-8.736v7.056c0 .907.74 1.815 1.68 1.983"/></svg>
